X:1
T:Irishman's Fancy
M:C|
L:1/8
R:Hornpipe
N:"American Hornpipe"
B:Köhler’s Violin Repository
K:Bdor
f2 (Bb) fBde|f2 (fg) eAce|f2 (Bb) fBde|fgaf eAce|
fB {cBA}B2 (fB)de|fBdg eAce|fB~B2 (fB)de|fgaf eAce:|
|:fBbB fBdf|fBbB eAce|fBbB fBde|fgaf eAce|
fBbB fBde|fBbB eAce|(fB)(bB) (aB)(gB)|fgaf eAce:|]

